X: 416
T: Lady Mackentashes Reel
N: Pub: J. Walsh, London, 1748
Z: 2012 John Chambers <jc:trillian.mit.edu>
S: 4: ACMV  http://archive.org/details/acompositemusicv01rugg p.3:15
M: C|
L: 1/8
K: C
% - - - - - - - - - - - - - - - - - - - - - - - - -
V: 1
((3f/e/d/) | c2cG A2Af | ((3fed) ec A2AB | cBcG ABcd | ecdB G2G :|
|: f |\
efge fddf | Te>fge A2Af | e>fge afdf | ecdB G2G :|
% - - - - - - - - - - - - - - - - - - - - - - - - -
V: 2 clef=bass middle=d
z | c'2c2 f2d2 | B2c2 f2d2 | e2c2 fgab | c'2g2 G3 :||: b |
c'2c2 g2b2 | c'2c2 f2d2 | c2e2 f2d2 | c2g2 G3 :|
% - - - - - - - - - - - - - - - - - - - - - - - - -
%%begintext align
%% The 1st & 2d Cu. right hands across quite round .|
%% Left hands back again :|
%% cross over one Cu. & turn .|.
%% lead up to the top & cast off :|:
%% foot it Corners & turn :||
%% lead outsides & turn :||:
%%endtext

%%sep 1 1 500
%%sep 1 1 500
